images_sukapura_svg/cmd/lc_setborderstyle.svg

<svg viewBox="0 0 24 24" xmlns="http://www.w3.org/2000/svg"><path d="m3 3c-.554 0-1 .446-1 1v15h1v-15h17v15h1v-15c0-.554-.446-1-1-1z" fill="#69696e"/><path d="m3 3c-.554 0-1 .446-1 1v15h1v-15h17v15h1v-15c0-.554-.446-1-1-1z" fill="#808080"/><path d="m3 4v15h17v-15z" fill="#fff"/><path d="m11 4v8h-8v1h8v6h1v-6h8v-1h-8v-8z" fill="#bababa"/><path d="m2 20h19v2h-19z" fill="#ff9500"/></svg>

<?xml version="1.0" encoding="UTF-8" standalone="no"?>
<svg
   xmlns:dc="http://purl.org/dc/elements/1.1/"
   xmlns:cc="http://creativecommons.org/ns#"
   xmlns:rdf="http://www.w3.org/1999/02/22-rdf-syntax-ns#"
   xmlns:svg="http://www.w3.org/2000/svg"
   xmlns="http://www.w3.org/2000/svg"
   xmlns:sodipodi="http://sodipodi.sourceforge.net/DTD/sodipodi-0.dtd"
   xmlns:inkscape="http://www.inkscape.org/namespaces/inkscape"
   viewBox="0 0 24 24"
   version="1.1"
   id="svg12"
   sodipodi:docname="lc_setborderstyle.svg"
   inkscape:version="0.92.3 (unknown)"
   inkscape:export-filename="/home/rizmut/Dokumen/Rizmut/Github/libreoffice-style-sukapura/images_sukapura/cmd/lc_setborderstyle.png"
   inkscape:export-xdpi="96"
   inkscape:export-ydpi="96">
  <metadata
     id="metadata18">
    <rdf:RDF>
      <cc:Work
         rdf:about="">
        <dc:format>image/svg+xml</dc:format>
        <dc:type
           rdf:resource="http://purl.org/dc/dcmitype/StillImage" />
        <dc:title></dc:title>
      </cc:Work>
    </rdf:RDF>
  </metadata>
  <defs
     id="defs16" />
  <sodipodi:namedview
     pagecolor="#ffffff"
     bordercolor="#666666"
     borderopacity="1"
     objecttolerance="10"
     gridtolerance="10"
     guidetolerance="10"
     inkscape:pageopacity="0"
     inkscape:pageshadow="2"
     inkscape:window-width="1366"
     inkscape:window-height="699"
     id="namedview14"
     showgrid="true"
     inkscape:zoom="9.8333333"
     inkscape:cx="-1.0677966"
     inkscape:cy="12"
     inkscape:window-x="0"
     inkscape:window-y="0"
     inkscape:window-maximized="1"
     inkscape:current-layer="svg12">
    <inkscape:grid
       type="xygrid"
       id="grid838" />
  </sodipodi:namedview>
  <path
     d="M 3 3 C 2.446 3 2 3.446 2 4 L 2 19 L 3 19 L 3 4 L 20 4 L 20 19 L 21 19 L 21 4 C 21 3.446 20.554 3 20 3 L 3 3 z "
     id="path842"
     style="fill:#69696e;fill-opacity:1" />
  <path
     d="m3 3c-.554 0-1 .446-1 1v15h1v-15h17v15h1v-15c0-.554-.446-1-1-1z"
     fill="#808080"
     id="path2" />
  <path
     d="m3 4v15h17v-15z"
     fill="#fff"
     id="path4" />
  <path
     d="M 11 4 L 11 12 L 3 12 L 3 13 L 11 13 L 11 19 L 12 19 L 12 13 L 20 13 L 20 12 L 12 12 L 12 4 L 11 4 z "
     id="path6"
     style="fill:#bababa;fill-opacity:1" />
  <path
     d="m2 20h19v2h-19z"
     fill="#eac282"
     id="path10"
     style="fill:#ff9500;fill-opacity:1" />
</svg>
